common/src/main/resources/icons/plugins/markdown/Move_table_column_right.svg

<svg xmlns="http://www.w3.org/2000/svg" width="16" height="16" fill="#90A4AE" data-big="true" viewBox="0 0 24 24"><path d="M4 2H2v20h2v-9h14.17l-5.5 5.5 1.41 1.42L22 12l-7.92-7.92-1.41 1.42 5.5 5.5H4z"/></svg>

<!--
  - The MIT License (MIT)
  -
  - Copyright (c) 2015-2024 Elior "Mallowigi" Boukhobza
  -
  - Permission is hereby granted, free of charge, to any person obtaining a copy
  - of this software and associated documentation files (the "Software"), to deal
  - in the Software without restriction, including without limitation the rights
  - to use, copy, modify, merge, publish, distribute, sublicense, and/or sell
  - copies of the Software, and to permit persons to whom the Software is
  - furnished to do so, subject to the following conditions:
  -
  - The above copyright notice and this permission notice shall be included in all
  - copies or substantial portions of the Software.
  -
  - THE SOFTWARE IS PROVIDED "AS IS", WITHOUT WARRANTY OF ANY KIND, EXPRESS OR
  - IMPLIED, INCLUDING BUT NOT LIMITED TO THE WARRANTIES OF MERCHANTABILITY,
  - FITNESS FOR A PARTICULAR PURPOSE AND NONINFRINGEMENT. IN NO EVENT SHALL THE
  - AUTHORS OR COPYRIGHT HOLDERS BE LIABLE FOR ANY CLAIM, DAMAGES OR OTHER
  - LIABILITY, WHETHER IN AN ACTION OF CONTRACT, TORT OR OTHERWISE, ARISING FROM,
  - OUT OF OR IN CONNECTION WITH THE SOFTWARE OR THE USE OR OTHER DEALINGS IN THE
  - SOFTWARE.
  -->


<svg data-big="true" xmlns="http://www.w3.org/2000/svg" fill="#90A4AE" version="1.1" width="16px" height="16px"
     viewBox="0 0 24 24">
  <path d="M4,2H2V22H4V13H18.17L12.67,18.5L14.08,19.92L22,12L14.08,4.08L12.67,5.5L18.17,11H4V2Z"/>
</svg>
